files/resources/svgs/general/m-fire.svg

<svg width="20" height="20" viewBox="0 0 20 20" fill="none" xmlns="http://www.w3.org/2000/svg">
<path fill-rule="evenodd" clip-rule="evenodd" d="M13.4997 4.93762C16.8478 6.87062 17.9949 11.1518 16.0619 14.4998C14.1289 17.8479 9.84775 18.995 6.4997 17.062C3.15166 15.129 2.00453 10.8479 3.93753 7.4998C4.10592 7.20813 4.29214 6.93316 4.49401 6.67548C4.69562 6.41812 5.08463 6.45704 5.28714 6.71368C5.56487 7.06565 5.88119 7.38577 6.22971 7.66764C6.56235 7.93667 7.01647 7.61943 7.00304 7.19183C7.00103 7.12812 7.00003 7.06416 7.00003 6.99997C7.00003 6.08143 7.20643 5.2111 7.57539 4.43282C8.10854 3.30822 8.98111 2.37583 10.0608 1.76798C10.3078 1.62893 10.6112 1.7522 10.7378 2.00584C11.3297 3.1927 12.2651 4.2248 13.4997 4.93762ZM14 12C14 14.2091 12.2092 16 10 16C8.08674 16 6.4791 14.6016 6.09017 12.8183C5.9966 12.3894 6.52967 12.1749 6.90396 12.4045C7.38998 12.7025 7.93731 12.8964 8.50538 12.9685C8.80801 13.0068 9.03609 12.7289 9.01482 12.4246C9.00501 12.2844 9.00002 12.1428 9.00002 12C9.00002 10.5731 9.49812 9.26254 10.3299 8.23269C10.4337 8.10417 10.599 8.04108 10.7612 8.07233C12.6063 8.4278 14 10.0511 14 12Z" fill="#0F172A"/>
</svg>

<svg xmlns="http://www.w3.org/2000/svg" viewBox="0 0 20 20" fill="currentColor" aria-hidden="true">
  <path fill-rule="evenodd" d="M13.5 4.938a7 7 0 11-9.006 1.737c.202-.257.59-.218.793.039.278.352.594.672.943.954.332.269.786-.049.773-.476a5.977 5.977 0 01.572-2.759 6.026 6.026 0 012.486-2.665c.247-.14.55-.016.677.238A6.967 6.967 0 0013.5 4.938zM14 12a4 4 0 01-4 4c-1.913 0-3.52-1.398-3.91-3.182-.093-.429.44-.643.814-.413a4.043 4.043 0 001.601.564c.303.038.531-.24.51-.544a5.975 5.975 0 011.315-4.192.447.447 0 01.431-.16A4.001 4.001 0 0114 12z" clip-rule="evenodd"/>
</svg>
